www/assets/icons/fit_screen.svg

<svg xmlns="http://www.w3.org/2000/svg" width="24" height="24" viewBox="0 0 24 24" fill='currentColor'><path d="M17 4h3c1.1 0 2 .9 2 2v2h-2V6h-3zM4 8V6h3V4H4c-1.1 0-2 .9-2 2v2zm16 8v2h-3v2h3c1.1 0 2-.9 2-2v-2zM7 18H4v-2H2v2c0 1.1.9 2 2 2h3zM18 8H6v8h12z"/></svg>

<svg width="24" height="24" viewBox="0 0 24 24" xmlns="http://www.w3.org/2000/svg" fill='currentColor'><path d="M17 4H20C21.1 4 22 4.9 22 6V8H20V6H17V4ZM4 8V6H7V4H4C2.9 4 2 4.9 2 6V8H4ZM20 16V18H17V20H20C21.1 20 22 19.1 22 18V16H20ZM7 18H4V16H2V18C2 19.1 2.9 20 4 20H7V18ZM18 8H6V16H18V8Z"/></svg>
